X:1
T: The Earl of Angus and Arran
C:
R:Strathspey
Q: 128
K:Eb
M:4/4
L:1/16
|:B,2|EE3 B4 G3F E3G|AC3 F3E DB,3 C3D|EE3 B4 G3F E3G|AC3 F3D E4 E3B,|
EE3 B4 G3F E3G|A2C2 F2E2 D2B,2 C2D2|EE3 B4 G3F E3G|AC3 F3D E4 E2B2|
GB3 E3B GB3 E3d|e3E G3E DF3 F3A|GB3 E3B GB3 E3g|f3e d2c2 B4 B2G2|
Ac3 F3A GB3 E3G|F3G AGFE F2E2 D2B,2|EG3 FA3 GB3 Ac3|B3e df3 e6:|
